assets/images/logom.svg

<svg width="45" height="55" viewBox="0 0 45 55" fill="none" xmlns="http://www.w3.org/2000/svg">
<g clip-path="url(#clip0_38_36)">
<path d="M22.2 0C9.94 0 0 8.62 0 19.26C0.282986 23.8148 1.69546 28.2275 4.11 32.1L17.72 52C18.247 52.6941 18.9274 53.2569 19.7081 53.6444C20.4888 54.0319 21.3485 54.2335 22.22 54.2335C23.0915 54.2335 23.9512 54.0319 24.7319 53.6444C25.5126 53.2569 26.193 52.6941 26.72 52L40.3 32.1C42.7145 28.2275 44.127 23.8148 44.41 19.26C44.41 8.62 34.47 0 22.2 0Z" fill="white"/>
<path d="M22.18 47.85C22.18 47.79 22.12 47.76 22.08 47.73C21.49 47.14 20.91 46.55 20.31 45.97C20.21 45.86 20.22 45.82 20.31 45.72L32.41 33.64C34.0991 31.9669 35.3553 29.9075 36.07 27.64C36.7321 25.5253 36.9024 23.2872 36.5679 21.0966C36.2334 18.9061 35.403 16.8208 34.14 15C32.198 12.1731 29.312 10.1309 26 9.24C24.2682 8.77006 22.4633 8.63097 20.68 8.83C17.7873 9.1386 15.0535 10.3066 12.8308 12.1835C10.6082 14.0603 8.99876 16.5599 8.20999 19.36C7.74278 20.9828 7.57005 22.6763 7.69999 24.36C7.91719 27.5385 9.18744 30.5541 11.31 32.93C11.51 33.16 11.74 33.38 11.95 33.62C12.1378 33.8113 12.2654 34.0534 12.317 34.3165C12.3685 34.5796 12.3418 34.852 12.24 35.1C12.1501 35.3588 11.983 35.5838 11.7613 35.7447C11.5396 35.9056 11.2739 35.9947 11 36C10.7849 36.0211 10.5679 35.9913 10.3664 35.9132C10.1649 35.835 9.9846 35.7106 9.83999 35.55C9.10557 34.8234 8.43634 34.0337 7.83999 33.19C6.44945 31.1787 5.50189 28.895 5.05999 26.49C4.76705 24.938 4.693 23.3526 4.83999 21.78C5.1414 18.4191 6.41356 15.2184 8.50153 12.5676C10.5895 9.91677 13.4032 7.93028 16.6 6.85C17.7824 6.43586 19.0062 6.15087 20.25 6C21.4964 5.86645 22.7536 5.86645 24 6C27.1776 6.33457 30.2017 7.53815 32.7402 9.47862C35.2787 11.4191 37.2335 14.0214 38.39 17C39.2697 19.2244 39.6652 21.6107 39.55 24C39.4018 28.4035 37.5607 32.5801 34.41 35.66C30.41 39.72 26.32 43.76 22.28 47.8L22.21 47.88L22.18 47.85Z" fill="#D13B34"/>
<path d="M26 26.71L25 23.91L22.2 28.53C21.26 26.99 20.34 25.46 19.4 23.91C19.07 24.86 18.75 25.78 18.4 26.71H19.26C19.39 26.71 19.41 26.71 19.41 26.86C19.41 27.3267 19.41 27.7967 19.41 28.27C19.41 28.37 19.41 28.4 19.28 28.4H12.84C12.74 28.4 12.71 28.4 12.71 28.27C12.71 27.79 12.71 27.27 12.71 26.82C12.71 26.73 12.71 26.71 12.83 26.71H13.83C13.8783 26.7143 13.9267 26.7017 13.9668 26.6743C14.0069 26.647 14.0363 26.6066 14.05 26.56C15.3833 23.1 16.75 19.6433 18.15 16.19C18.24 15.96 18.33 15.74 18.43 15.47L22.2 22L25.93 15.47C25.99 15.47 25.99 15.56 26.01 15.61L30.33 26.54C30.3415 26.5831 30.3679 26.6208 30.4045 26.6464C30.4411 26.672 30.4855 26.6839 30.53 26.68H31.53C31.63 26.68 31.66 26.68 31.66 26.8C31.66 27.29 31.66 27.8 31.66 28.25C31.66 28.36 31.66 28.37 31.53 28.37H25.11C25.01 28.37 24.98 28.37 24.98 28.24C24.98 27.76 24.98 27.29 24.98 26.81C24.98 26.7 24.98 26.68 25.11 26.68H26" fill="#D13B34"/>
</g>
<defs>
<clipPath id="clip0_38_36">
<rect width="44.41" height="54.17" fill="white"/>
</clipPath>
</defs>
</svg>

<svg width="45" height="55" fill="none" xmlns="http://www.w3.org/2000/svg"><g clip-path="url(#clip0_38_36)"><path d="M22.2 0C9.94 0 0 8.62 0 19.26A27.49 27.49 0 004.11 32.1L17.72 52a5.65 5.65 0 009 0L40.3 32.1a27.49 27.49 0 004.11-12.84C44.41 8.62 34.47 0 22.2 0z" fill="#fff"/><path d="M22.18 47.85c0-.06-.06-.09-.1-.12-.59-.59-1.17-1.18-1.77-1.76-.1-.11-.09-.15 0-.25l12.1-12.08a14.64 14.64 0 003.66-6A14.55 14.55 0 0034.14 15 14.42 14.42 0 0026 9.24a14.27 14.27 0 00-5.32-.41A14.56 14.56 0 008.21 19.36a14.14 14.14 0 00-.51 5 14.33 14.33 0 003.61 8.57c.2.23.43.45.64.69a1.37 1.37 0 01.29 1.48A1.34 1.34 0 0111 36a1.38 1.38 0 01-1.16-.45 17.654 17.654 0 01-2-2.36 17.27 17.27 0 01-2.78-6.7 16.91 16.91 0 01-.22-4.71A17.4 17.4 0 0116.6 6.85c1.182-.414 2.406-.7 3.65-.85A17.6 17.6 0 0124 6a17.39 17.39 0 0114.39 11 16.83 16.83 0 011.16 7 17.11 17.11 0 01-5.14 11.66c-4 4.06-8.09 8.1-12.13 12.14l-.07.08-.03-.03z" fill="#D13B34"/><path d="M26 26.71l-1-2.8-2.8 4.62c-.94-1.54-1.86-3.07-2.8-4.62-.33.95-.65 1.87-1 2.8h.86c.13 0 .15 0 .15.15v1.41c0 .1 0 .13-.13.13h-6.44c-.1 0-.13 0-.13-.13v-1.45c0-.09 0-.11.12-.11h1a.21.21 0 00.22-.15 638.86 638.86 0 014.1-10.37c.09-.23.18-.45.28-.72L22.2 22l3.73-6.53c.06 0 .06.09.08.14l4.32 10.93a.19.19 0 00.2.14h1c.1 0 .13 0 .13.12v1.45c0 .11 0 .12-.13.12h-6.42c-.1 0-.13 0-.13-.13v-1.43c0-.11 0-.13.13-.13H26" fill="#D13B34"/></g><defs><clipPath id="clip0_38_36"><path fill="#fff" d="M0 0h44.41v54.17H0z"/></clipPath></defs></svg>
